X:131
T:Neville's Point Reel
R:reel
C:Bruce Osborne - Jan. 2003
Z:abc by bosborne@kos.net
M:2/4
L:1/8
K:Emaj
g/a/|b/g/e/c/ B/c/B/G/|E/B,/E/F/ GF/E/|D/F/B,/D/ F/B,/D/F/|E/G/c/G/ Bg/a/|\
b/g/e/c/ B/c/B/G/|E/B,/E/F/ GF/E/|D/F/B,/D/ F/B,/D/F/|E/G/F/D/ E:|
|:G/A/|B/c/B/G/ E/F/G/A/|B/c/B/G/ Bd/e/|f/g/f/d/ B/A/G/F/|E/D/E/F/ GG/A/|\
B/c/B/G/ E/F/G/A/|B/c/B/G/ Bd/e/|f/g/f/d/ B/A/G/F/|E/G/F/D/ E:|
